X:1
T: Blodgett's Reel
C:
R:Reel
I:speed 232
K:G
M:4/4
L:1/8
d2|gB ^AB gB aB|gB ^AB dB ^AB|gB ^AB gB af|ef ga gf ed|
gB ^AB gB aB|gB ^AB dB ^AB|gB ^AB gB af|ef ga gf ed|
a2fd Ad fd|Ad fd ed fd|a2fd A dfd|e fga g fed|
a2fd Ad fd|Ad fd ed fd|af ge fd e^c|ed ^cd ^de =f^f|
a2fd Ad fd|Ad fd ed fd|a2fd Ad fd|ef ga gf ed|
a2fd Ad fd|Ad fd ed fd|af ge fd e^c|ed ^cd ^de =f^f|
gB ^AB gB aB|gB ^AB dB ^AB|gB ^AB gB af|ef ga gf ed|
gB ^AB gB aB|gB ^AB dB ^AB|gB ^AB gB af|ef ga g2||
